build/assets/img/icons/dollar-circle.svg

<svg width="26" height="26" viewBox="0 0 26 26" fill="none" xmlns="http://www.w3.org/2000/svg">
<line x1="2.19732" y1="1.1363" x2="24.1973" y2="23.1363" stroke="white" stroke-width="1.5"/>
<path d="M8.58333 15.7778C8.58333 17.2812 9.80211 18.5 11.3056 18.5H13.8333C15.4442 18.5 16.75 17.1942 16.75 15.5833C16.75 13.9725 15.4442 12.6667 13.8333 12.6667H11.5C9.88917 12.6667 8.58333 11.3608 8.58333 9.75C8.58333 8.13917 9.88917 6.83333 11.5 6.83333H14.0278C15.5312 6.83333 16.75 8.05211 16.75 9.55556M12.6667 5.08333V6.83333M12.6667 18.5V20.25M24.3333 12.6667C24.3333 19.11 19.11 24.3333 12.6667 24.3333C6.22334 24.3333 1 19.11 1 12.6667C1 6.22334 6.22334 1 12.6667 1C19.11 1 24.3333 6.22334 24.3333 12.6667Z" stroke="white" stroke-width="1.5" stroke-linecap="round" stroke-linejoin="round"/>
</svg>

<svg width="26" height="26" fill="none" xmlns="http://www.w3.org/2000/svg"><path stroke="#fff" stroke-width="1.5" d="M2.197 1.136l22 22"/><path d="M8.583 15.778a2.722 2.722 0 002.723 2.722h2.527a2.917 2.917 0 100-5.833H11.5a2.917 2.917 0 010-5.834h2.528a2.722 2.722 0 012.722 2.723m-4.083-4.473v1.75m0 11.667v1.75m11.666-7.583c0 6.443-5.223 11.666-11.666 11.666C6.223 24.333 1 19.11 1 12.667 1 6.223 6.223 1 12.667 1c6.443 0 11.666 5.223 11.666 11.667z" stroke="#fff" stroke-width="1.5" stroke-linecap="round" stroke-linejoin="round"/></svg>
